X: 9269
T: Danbury Hill
R: jig
M: 6/8
K: Aminor
|:Ace f2e|dBG e2d|cBc dcB|ABA ^G^FE|
Ace f2e|dBG e2d|cBc dcB|1 A3 A2E:|2 A3 A2^g||
|:a2 ^g2 g2|^f2 f2 e2|efe dcB|efe dcB|
a2 ^g2 g2|^f2 f2 e2|efe dcB|1 A3 A2^g:|2 A3 A2E||

